svgs/sharp-solid/note-sticky.svg

<svg xmlns="http://www.w3.org/2000/svg" viewBox="0 0 448 512"><!--! Font Awesome Pro 6.6.0 by @fontawesome - https://fontawesome.com License - https://fontawesome.com/license (Commercial License) Copyright 2024 Fonticons, Inc. --><path d="M448 32L0 32 0 480l288 0 0-128 0-32 32 0 128 0 0-288zm0 320l-45.3 0L352 352l-32 0 0 32 0 50.7 0 45.3 32-32 64-64 32-32z"/></svg>

<svg xmlns="http://www.w3.org/2000/svg" viewBox="0 0 448 512"><!--! Font Awesome Pro 6.4.0 by @fontawesome - https://fontawesome.com License - https://fontawesome.com/license (Commercial License) Copyright 2023 Fonticons, Inc. --><path d="M448 32H0V480H288V352 320h32H448V32zm0 320H402.7 352 320v32 50.7V480l32-32 64-64 32-32z"/></svg>
